src/cmd/lc_insertcolumnsafter.svg

<svg viewBox="0 0 24 24" xmlns="http://www.w3.org/2000/svg"><path d="m4 4v1 8 1 6h1 4 1 4v-1h-4v-2h4v-1h-4v-2h4v-1h-4v-2h4v-1h-4v-2h4v-1h-4v-2h4v-1h-4-1zm1 1h4v2h-4zm0 3h4v2h-4zm0 3h4v2h-4zm0 3h4v2h-4zm12 1v2h-2v1h2v2h1v-2h2v-1h-2v-2zm-12 2h4v2h-4z" fill="#232629"/><path d="m14 4v1 3 4 1 1h1 .28125 1.4375 2.28125 1v-1-1-2.71875-1.28125-3-1h-1-4zm1.71875 1h3.28125v3 .28125zm-.71875.71875 4 4v2.28125.28125l-.28125-.28125-3.71875-3.71875v-.28125zm0 4 2.28125 2.28125 1 1h-2.5625l-.71875-.71875v-.28125z" fill="#762572"/></svg>

<?xml version="1.0" encoding="UTF-8" standalone="no"?>
<svg
   xmlns:dc="http://purl.org/dc/elements/1.1/"
   xmlns:cc="http://creativecommons.org/ns#"
   xmlns:rdf="http://www.w3.org/1999/02/22-rdf-syntax-ns#"
   xmlns:svg="http://www.w3.org/2000/svg"
   xmlns="http://www.w3.org/2000/svg"
   xmlns:sodipodi="http://sodipodi.sourceforge.net/DTD/sodipodi-0.dtd"
   xmlns:inkscape="http://www.inkscape.org/namespaces/inkscape"
   viewBox="0 0 24 24"
   version="1.1"
   id="svg6"
   sodipodi:docname="lc_insertcolumnsafter.svg"
   inkscape:version="0.92.4 (5da689c313, 2019-01-14)">
  <metadata
     id="metadata12">
    <rdf:RDF>
      <cc:Work
         rdf:about="">
        <dc:format>image/svg+xml</dc:format>
        <dc:type
           rdf:resource="http://purl.org/dc/dcmitype/StillImage" />
      </cc:Work>
    </rdf:RDF>
  </metadata>
  <defs
     id="defs10" />
  <sodipodi:namedview
     pagecolor="#ffffff"
     bordercolor="#666666"
     borderopacity="1"
     objecttolerance="10"
     gridtolerance="10"
     guidetolerance="10"
     inkscape:pageopacity="0"
     inkscape:pageshadow="2"
     inkscape:window-width="1920"
     inkscape:window-height="1011"
     id="namedview8"
     showgrid="true"
     inkscape:zoom="55.625733"
     inkscape:cx="11.534883"
     inkscape:cy="10.591306"
     inkscape:window-x="0"
     inkscape:window-y="32"
     inkscape:window-maximized="1"
     inkscape:current-layer="svg6">
    <inkscape:grid
       type="xygrid"
       id="grid822" />
  </sodipodi:namedview>
  <path
     d="M 7,4 C 5,4 4,4 4,6 v 7 1 4 c 0,2 1,2 3,2 h 2 1 4 v -1 h -4 v -2 h 4 v -1 h -4 v -2 h 4 v -1 h -4 v -2 h 4 V 10 H 10 V 8 h 4 V 7 H 10 V 5 h 4 V 4 H 10 9 Z M 7,5 H 9 V 7 H 5 V 6 C 5,5 6,5 7,5 Z M 5,8 h 4 v 2 H 5 Z m 0,3 h 4 v 2 H 5 Z m 0,3 h 4 v 2 H 5 Z m 12,1 v 2 h -2 v 1 h 2 v 2 h 1 v -2 h 2 V 17 H 18 V 15 Z M 5,17 h 4 v 2 H 7 C 6,19 5,19 5,18 Z"
     id="path2"
     inkscape:connector-curvature="0"
     style="fill:#232629"
     sodipodi:nodetypes="ccccccccccccccccccccccccccccccccccccccccccccccccccccccccccccccccccccccccc" />
  <path
     d="m 14,4 v 1 3 4 1 1 h 1 0.28125 1.4375 H 19 20 V 13 12 9.28125 8 6 C 20,4 19,4 17,4 h -2 z m 1.71875,1 H 17 c 1,0 2,0 2,1 V 8 8.28125 Z M 15,5.71875 l 4,4 V 12 12.28125 L 18.71875,12 15,8.28125 V 8 Z m 0,4 2.28125,2.28125 1,1 h -2.5625 L 15,12.28125 V 12 Z"
     id="path4"
     inkscape:connector-curvature="0"
     style="fill:#762572"
     sodipodi:nodetypes="cccccccccccccccccccccccccccccccccccccccc" />
</svg>
